packages/foundations/assets/icons/functional/images/layout/resize_28.svg

<svg width="28" height="28" viewBox="0 0 28 28" fill="none" xmlns="http://www.w3.org/2000/svg">
<g clip-path="url(#clip0_185_1503)">
<path fill-rule="evenodd" clip-rule="evenodd" d="M8.31269 17.5C9.47248 17.5 10.5002 18.4237 10.5002 19.6875V24.0625C10.5002 25.2223 9.5825 26.25 8.31269 26.25H3.93769C2.77789 26.25 1.72538 25.2946 1.75019 24.0625V19.6875C1.75019 18.5277 2.66718 17.5 3.93769 17.5H8.31269ZM3.93769 19.25C3.72291 19.25 3.50019 19.4282 3.50019 19.6875V24.0625C3.50019 24.2773 3.67272 24.5 3.93769 24.5H8.31269C8.52746 24.5 8.75019 24.3339 8.75019 24.0625V19.6875C8.75019 19.4801 8.58513 19.25 8.31269 19.25H3.93769ZM23.6252 1.75C25.0232 1.75 26.2502 2.87093 26.2502 4.375V20.125C26.2502 21.523 25.1314 22.75 23.6252 22.75H14.0002C13.5169 22.75 13.1252 22.3582 13.1252 21.875C13.1252 21.4263 13.4906 21 14.0002 21H23.6252C24.0739 21 24.5002 20.6194 24.5002 20.125V4.375C24.5002 3.92627 24.1517 3.5 23.6252 3.5H7.87519C7.42645 3.5 7.00019 3.87068 7.00019 4.375V14C7.00019 14.4832 6.60843 14.875 6.12519 14.875C5.67645 14.875 5.25019 14.5026 5.25019 14V4.375C5.25019 2.97703 6.38176 1.75 7.87519 1.75H23.6252ZM20.1252 7C20.5739 7 21.0002 7.36646 21.0002 7.875V13.125C21.0002 13.6082 20.6084 14 20.1252 14C19.6765 14 19.2502 13.6358 19.2502 13.125V9.98725L13.7439 15.4937C13.4022 15.8354 12.8482 15.8354 12.5065 15.4937C12.191 15.1783 12.1365 14.6111 12.5065 14.2563L18.0112 8.75H14.8752C14.3585 8.75 14.0002 8.32373 14.0002 7.875C14.0002 7.42627 14.3585 7 14.8752 7H20.1252Z" fill="#1A1C1F"/>
</g>
<defs>
<clipPath id="clip0_185_1503">
<rect width="28" height="28" fill="white"/>
</clipPath>
</defs>
</svg>

<svg xmlns="http://www.w3.org/2000/svg" width="28" height="28" fill="none"><g clip-path="url(#a)"><path fill="#1A1C1F" fill-rule="evenodd" d="M8.313 17.5c1.16 0 2.187.924 2.187 2.188v4.375c0 1.16-.918 2.187-2.187 2.187H3.938c-1.16 0-2.213-.955-2.188-2.187v-4.375c0-1.16.917-2.188 2.188-2.188zm-4.375 1.75a.443.443 0 0 0-.438.438v4.375a.44.44 0 0 0 .438.437h4.375a.435.435 0 0 0 .437-.437v-4.375a.44.44 0 0 0-.437-.438zm19.687-17.5a2.623 2.623 0 0 1 2.625 2.625v15.75a2.62 2.62 0 0 1-2.625 2.625H14A.875.875 0 1 1 14 21h9.625a.89.89 0 0 0 .875-.875V4.375a.87.87 0 0 0-.875-.875H7.875A.883.883 0 0 0 7 4.375V14a.875.875 0 0 1-.875.875A.885.885 0 0 1 5.25 14V4.375c0-1.398 1.132-2.625 2.625-2.625zM20.125 7a.88.88 0 0 1 .875.875v5.25a.875.875 0 0 1-1.75 0V9.987l-5.506 5.507a.875.875 0 0 1-1.237 0c-.316-.316-.37-.883 0-1.238L18.01 8.75h-3.136a.875.875 0 0 1 0-1.75z" clip-rule="evenodd"/></g><defs><clipPath id="a"><path fill="#fff" d="M0 0h28v28H0z"/></clipPath></defs></svg>
